svg/white/aywa.svg

<svg width="32" height="32" viewBox="0 0 32 32" xmlns="http://www.w3.org/2000/svg"><path d="M16 32C7.163 32 0 24.837 0 16S7.163 0 16 0s16 7.163 16 16-7.163 16-16 16zm0-28C9.373 4 4 9.373 4 16s5.373 12 12 12 12-5.373 12-12A12 12 0 0 0 16 4zm0 23.77C9.5 27.77 4.23 22.5 4.23 16S9.5 4.23 16 4.23 27.77 9.5 27.77 16A11.77 11.77 0 0 1 16 27.77zm3.29-14.27l-.03-.11-.03-.11-.03-.12-.04-.1-.03-.11-.04-.1-.05-.11-.04-.1-.05-.09-.05-.1-.05-.09-.06-.09-.05-.08-.06-.09-.06-.07-.07-.08-.06-.07-.06-.07-.07-.06-.07-.06-.07-.06-.07-.05-.08-.05-.07-.04-.08-.05-.07-.03-.08-.04-.08-.03-.08-.03-.09-.02-.08-.02-.08-.02-.09-.01-.09-.01-.08-.01h-.27l-.09.01-.09.01-.1.01-.09.02-.09.02-.09.02-.1.03-.09.03-.1.03-.1.04-.09.04-.1.05-.09.04-.1.05-.1.06-.09.05-.1.06-.1.07-.09.06-.1.07-.1.08-.1.07-.09.08-.1.08-.09.09-.1.09-.1.09-.09.1-.1.1-.09.1-.09.1-.1.11-.09.11-.09.11-.09.12-.09.12-.09.13-.12.17-.12.18-.12.19-.11.18-.11.2-.11.19-.1.19-.1.2-.09.2-.09.2-.08.2-.07.16 7.19-2.35-.01-.08zm-6.49 3.51l6.37-.05.03-.14.03-.14.03-.14.03-.15.02-.14.03-.14.02-.14.01-.14.02-.14.01-.14.01-.13.01-.14.01-.14v-.29l-6.63 2.16zM16 4.56C9.682 4.56 4.56 9.682 4.56 16S9.682 27.44 16 27.44 27.44 22.318 27.44 16A11.44 11.44 0 0 0 16 4.56zm6.48 12.36l-.2 1.18h-1.79l-.06.2-.11.3-.11.3-.12.3-.09.3-.13.29-.14.29-.14.29-.15.28-.15.28-.16.27-.16.27-.17.27-.2.26-.09.13-.09.13-.93-1.56.09-.13.09-.13.08-.13.08-.13.08-.13.08-.13.08-.13.07-.13.07-.14.07-.14.07-.14.07-.14.06-.14.06-.14.06-.14.06-.14.06-.14.05-.14v-.12l-7.27.06v1.85l-1.86 1.29V18.2H9.1l-.2.07-.34-1.19 1.68-.55v-.13l.07-.21.1-.19.07-.2.08-.2.08-.2.08-.2.08-.2.09-.2.09-.2.09-.2.09-.19.1-.19.1-.19.1-.19.1-.19.11-.19.11-.18.11-.18.11-.19.11-.18.12-.17.12-.17.11-.19.12-.17.12-.16.13-.16.17-.14.13-.15.13-.15.13-.15.14-.14.14-.14.14-.14.14-.13.14-.13.14-.13.11-.11.15-.12.15-.11.15-.11.15-.11.15-.1.15-.09.15-.09.15-.08.15-.08.13-.11.18-.05.14-.06.14-.06.14-.05h2.41l.11.05.11.05.11.06.11.06.1.07.1.07.1.08.1.08.09.09.09.09.09.1.09.1.08.11.08.11.08.11.08.12.07.12.07.13.07.13.06.14.06.14.06.14.06.15.05.15V13l1-.32.34 1.19-1.28.42v1.63l-.05.3-.06.3-.07.3v.13l1.75-.03z" fill="#FFF"/></svg>

<?xml version="1.0" encoding="UTF-8"?>
<svg width="32px" height="32px" viewBox="0 0 32 32" version="1.1" xmlns="http://www.w3.org/2000/svg" xmlns:xlink="http://www.w3.org/1999/xlink">
    <!-- Generator: Sketch 52.5 (67469) - http://www.bohemiancoding.com/sketch -->
    <title>svg/white/aywa</title>
    <desc>Created with Sketch.</desc>
    <g id="white/aywa" stroke="none" stroke-width="1" fill="none" fill-rule="evenodd">
        <path d="M16,32 C7.163444,32 0,24.836556 0,16 C0,7.163444 7.163444,0 16,0 C24.836556,0 32,7.163444 32,16 C32,24.836556 24.836556,32 16,32 Z M16,4 C9.372583,4 4,9.372583 4,16 C4,22.627417 9.372583,28 16,28 C22.627417,28 28,22.627417 28,16 C28,12.8174021 26.7357179,9.76515517 24.4852814,7.51471863 C22.2348448,5.26428208 19.1825979,4 16,4 Z M16,27.77 C9.49960849,27.77 4.23,22.5003915 4.23,16 C4.23,9.49960849 9.49960849,4.23 16,4.23 C22.5003915,4.23 27.77,9.49960849 27.77,16 C27.77,19.1215981 26.52995,22.1153436 24.3226468,24.3226468 C22.1153436,26.52995 19.1215981,27.77 16,27.77 Z M19.29,13.5 L19.26,13.39 L19.23,13.28 L19.2,13.16 L19.16,13.06 L19.13,12.95 L19.09,12.85 L19.04,12.74 L19,12.64 L18.95,12.55 L18.9,12.45 L18.85,12.36 L18.79,12.27 L18.74,12.19 L18.68,12.1 L18.62,12.03 L18.55,11.95 L18.49,11.88 L18.43,11.81 L18.36,11.75 L18.29,11.69 L18.22,11.63 L18.15,11.58 L18.07,11.53 L18,11.49 L17.92,11.44 L17.85,11.41 L17.77,11.37 L17.69,11.34 L17.61,11.31 L17.52,11.29 L17.44,11.27 L17.36,11.25 L17.27,11.24 L17.18,11.23 L17.1,11.22 L17.01,11.22 L16.92,11.22 L16.83,11.22 L16.74,11.23 L16.65,11.24 L16.55,11.25 L16.46,11.27 L16.37,11.29 L16.28,11.31 L16.18,11.34 L16.09,11.37 L15.99,11.4 L15.89,11.44 L15.8,11.48 L15.7,11.53 L15.61,11.57 L15.51,11.62 L15.41,11.68 L15.32,11.73 L15.22,11.79 L15.12,11.86 L15.03,11.92 L14.93,11.99 L14.83,12.07 L14.73,12.14 L14.64,12.22 L14.54,12.3 L14.45,12.39 L14.35,12.48 L14.25,12.57 L14.16,12.67 L14.06,12.77 L13.97,12.87 L13.88,12.97 L13.78,13.08 L13.69,13.19 L13.6,13.3 L13.51,13.42 L13.42,13.54 L13.33,13.67 L13.21,13.84 L13.09,14.02 L12.97,14.21 L12.86,14.39 L12.75,14.59 L12.64,14.78 L12.54,14.97 L12.44,15.17 L12.35,15.37 L12.26,15.57 L12.18,15.77 L12.11,15.93 L19.3,13.58 L19.29,13.5 Z M12.8,17.01 L19.17,16.96 L19.2,16.82 L19.23,16.68 L19.26,16.54 L19.29,16.39 L19.31,16.25 L19.34,16.11 L19.36,15.97 L19.37,15.83 L19.39,15.69 L19.4,15.55 L19.41,15.42 L19.42,15.28 L19.43,15.14 L19.43,15.01 L19.43,14.88 L19.43,14.85 L12.8,17.01 Z M16,4.56 C9.68186246,4.56 4.56,9.68186246 4.56,16 C4.56,22.3181375 9.68186246,27.44 16,27.44 C22.3181375,27.44 27.44,22.3181375 27.44,16 C27.44,12.9659234 26.2347177,10.0561146 24.0893016,7.91069842 C21.9438854,5.76528225 19.0340766,4.56 16,4.56 Z M22.48,16.92 L22.28,18.1 L20.49,18.1 L20.43,18.3 L20.32,18.6 L20.21,18.9 L20.09,19.2 L20,19.5 L19.87,19.79 L19.73,20.08 L19.59,20.37 L19.44,20.65 L19.29,20.93 L19.13,21.2 L18.97,21.47 L18.8,21.74 L18.6,22 L18.51,22.13 L18.42,22.26 L17.49,20.7 L17.58,20.57 L17.67,20.44 L17.75,20.31 L17.83,20.18 L17.91,20.05 L17.99,19.92 L18.07,19.79 L18.14,19.66 L18.21,19.52 L18.28,19.38 L18.35,19.24 L18.42,19.1 L18.48,18.96 L18.54,18.82 L18.6,18.68 L18.66,18.54 L18.72,18.4 L18.77,18.26 L18.77,18.14 L11.5,18.2 L11.5,18.26 L11.5,18.47 L11.5,18.67 L11.5,18.87 L11.5,20.05 L9.64,21.34 L9.64,19.74 L9.64,19.53 L9.64,19.32 L9.64,19.11 L9.64,18.9 L9.64,18.69 L9.64,18.48 L9.64,18.27 L9.64,18.2 L9.1,18.2 L8.9,18.27 L8.56,17.08 L10.24,16.53 L10.24,16.4 L10.31,16.19 L10.41,16 L10.48,15.8 L10.56,15.6 L10.64,15.4 L10.72,15.2 L10.8,15 L10.89,14.8 L10.98,14.6 L11.07,14.4 L11.16,14.21 L11.26,14.02 L11.36,13.83 L11.46,13.64 L11.56,13.45 L11.67,13.26 L11.78,13.08 L11.89,12.9 L12,12.71 L12.11,12.53 L12.23,12.36 L12.35,12.19 L12.46,12 L12.58,11.83 L12.7,11.67 L12.83,11.51 L13,11.37 L13.13,11.22 L13.26,11.07 L13.39,10.92 L13.53,10.78 L13.67,10.64 L13.81,10.5 L13.95,10.37 L14.09,10.24 L14.23,10.11 L14.34,10 L14.49,9.88 L14.64,9.77 L14.79,9.66 L14.94,9.55 L15.09,9.45 L15.24,9.36 L15.39,9.27 L15.54,9.19 L15.69,9.11 L15.82,9 L16,8.95 L16.14,8.89 L16.28,8.83 L16.42,8.78 L16.56,8.78 L16.7,8.78 L16.84,8.78 L16.98,8.78 L17.12,8.78 L17.25,8.78 L18,8.78 L18.12,8.78 L18.24,8.78 L18.36,8.78 L18.48,8.78 L18.6,8.78 L18.72,8.78 L18.83,8.78 L18.94,8.83 L19.05,8.88 L19.16,8.94 L19.27,9 L19.37,9.07 L19.47,9.14 L19.57,9.22 L19.67,9.3 L19.76,9.39 L19.85,9.48 L19.94,9.58 L20.03,9.68 L20.11,9.79 L20.19,9.9 L20.27,10.01 L20.35,10.13 L20.42,10.25 L20.49,10.38 L20.56,10.51 L20.62,10.65 L20.68,10.79 L20.74,10.93 L20.8,11.08 L20.85,11.23 L20.85,11.39 L20.85,11.55 L20.85,11.72 L20.85,11.89 L20.85,12.06 L20.85,12.24 L20.85,12.42 L20.85,12.61 L20.85,12.8 L20.85,13 L21.85,12.68 L22.19,13.87 L20.91,14.29 L20.91,14.73 L20.91,15.02 L20.91,15.32 L20.91,15.62 L20.91,15.92 L20.86,16.22 L20.8,16.52 L20.73,16.82 L20.73,16.95 L22.48,16.92 Z" id="Combined-Shape" fill="#FFFFFF" fill-rule="nonzero"></path>
    </g>
</svg>
